X: 24346
T: Louis De Carlo's
R: reel
M: 4/4
K: Amajor
|:EFAB c2BA|FABc fecA|EFAB cABc|fecA BAFA|
EFAB c2BA|FABc fecA|F2dc dcBA|(3EEE Ac BAA2:|
|:F2dc dcBA|E2cB BA|F2dc dcde|fecA BAFA|
F2dc dcBA|E2cB BA|F2dc dcBA|(3EEE Ac BAA2:|

